33

SETPOS 26 26
PD
RT 135
FD 5
REPEAT 2 [ RT 90 FD 15 ]
RT 90
FD 5
RT 45
FD 20
SETPOS 8 23
REPEAT 2 [ FD 2 RT 90 FD 1 RT 90 ]
SETPOS 22 23
REPEAT 2 [ FD 2 RT 90 FD 1 RT 90 ]
SETPOS 15 20
REPEAT 2 [ FD 2 RT 90 FD 1 RT 90 ]
SETPOS 10 19
RT 45
FD 3
LT 45
FD 6
LT 45
FD 3
