20

SETPOS 3 16
PD
REPEAT 4 [ RT 90 FD 2 ]
REPEAT 4 [ RT 90 FD 1 ]
PU
RT 90
FD 11
LT 90
PD
REPEAT 4 [ RT 90 FD 2 ]
REPEAT 4 [ RT 90 FD 1 ]

SETPOS 9 12
REPEAT 4 [ RT 90 FD 1 ]

SETPOS 1 10
PD
RT 135
FD 7
RT 135
BK 3
LT 45
BK 7
